public/library/camelot-icon-dark.svg

<svg width="64" height="64" viewBox="0 0 64 64" fill="none" xmlns="http://www.w3.org/2000/svg">
<g clip-path="url(#clip0_4897_4895)">
<circle cx="32" cy="32" r="32" fill="black"/>
<path d="M49.7559 26.7065C45.2851 24.2219 40.2607 22.6081 34.9144 22.0947V32.5385L31.204 34.1291L27.4936 32.5385V29.7225V27.5372V22.0947C22.1472 22.6094 17.1242 24.2232 12.652 26.7065C12.652 26.7065 11.7649 51.1003 31.2027 59.9999C31.2027 59.9999 31.204 59.9999 31.2053 59.9999C50.6431 51.1016 49.7559 26.7065 49.7559 26.7065ZM38.304 38.3512L34.2729 40.0786L31.438 41.2937L34.7695 41.3273C34.8484 41.3273 34.9053 50.4733 34.8885 50.4966L31.2027 55.9958L27.4923 50.4604C27.4923 50.4604 27.5569 41.2563 27.6358 41.2563L30.9557 41.2899L28.1325 40.0798L24.1013 38.3525L20.0702 36.6252L24.1013 34.8979L31.1445 37.9165C31.1807 37.932 31.2221 37.932 31.257 37.9165L38.3001 34.8979L42.3312 36.6252L38.3001 38.3525L38.304 38.3512Z" fill="#F58B00"/>
<path d="M42.3374 40.0784L38.3063 38.3511L31.2632 41.3697C31.2269 41.3851 31.1856 41.3851 31.1506 41.3697L24.1075 38.3511L20.0764 40.0784L24.1075 41.8057L28.1386 43.533L31.2075 44.8488L34.2765 43.533L38.3076 41.8057L42.3387 40.0784H42.3374Z" fill="#FFF3D4"/>
<path d="M42.3373 33.1579C42.3373 33.1579 38.2143 31.3906 34.9165 29.978V32.5374L31.2061 34.1279L27.4957 32.5374V29.978L20.3815 33.0276C20.2664 33.0766 20.2664 33.2404 20.3815 33.2907L24.1061 34.8865L31.1492 37.905C31.1854 37.9205 31.2268 37.9205 31.2617 37.905L38.3049 34.8865L42.336 33.1592L42.3373 33.1579Z" fill="#FFF3D4"/>
<path d="M43.8692 18.0261C40.6075 17.0483 37.1869 16.4368 33.6562 16.2395L32.813 8.65559C32.7923 8.46467 32.8531 8.27375 32.9824 8.13186C33.3859 7.69326 33.6317 7.10889 33.6317 6.46647C33.6317 5.10424 32.5246 4 31.1589 4C31.1576 4 31.1563 4 31.1551 4C31.1525 4 31.1499 4 31.146 4C29.7803 4 28.6733 5.10424 28.6733 6.46647C28.6733 7.10889 28.919 7.69326 29.3225 8.13186C29.4531 8.27375 29.5139 8.46467 29.4919 8.65559L28.6487 16.2395C25.1168 16.4368 21.6974 17.047 18.4358 18.0261L19.9864 21.5426L20.0963 21.5078C23.5804 20.4913 27.3645 19.9843 31.1499 19.9843C34.9366 19.9843 38.7233 20.4913 42.2086 21.5078L42.3211 21.5349L43.8692 18.0261Z" fill="#FFF3D4"/>
</g>
<defs>
<clipPath id="clip0_4897_4895">
<rect width="64" height="64" fill="white"/>
</clipPath>
</defs>
</svg>

<svg xmlns="http://www.w3.org/2000/svg" width="64" height="64" fill="none" viewBox="0 0 64 64"><g clip-path="url(#a)"><circle cx="32" cy="32" r="32" fill="#000"/><path fill="#f58b00" d="M49.756 26.707a38 38 0 0 0-14.842-4.612v10.444l-3.71 1.59-3.71-1.59V22.094a38 38 0 0 0-14.842 4.611S11.765 51.1 31.202 60h.003c19.438-8.898 18.55-33.293 18.55-33.293M38.304 38.35l-4.031 1.728-2.835 1.215 3.332.033c.078 0 .135 9.146.118 9.17l-3.685 5.499-3.71-5.536s.064-9.204.143-9.204l3.32.034-2.823-1.21-4.032-1.727-4.03-1.728 4.03-1.727 7.044 3.018a.14.14 0 0 0 .112 0l7.043-3.018 4.031 1.727-4.03 1.727z"/><path fill="#fff3d4" d="m42.337 40.078-4.03-1.727-7.044 3.019a.14.14 0 0 1-.112 0l-7.043-3.019-4.032 1.727 4.032 1.728 4.03 1.727 3.07 1.316 3.069-1.316 4.03-1.727 4.032-1.728zM42.337 33.158l-7.42-3.18v2.56l-3.71 1.59-3.711-1.59v-2.56l-7.114 3.05a.143.143 0 0 0 0 .263l3.724 1.596 7.043 3.018a.14.14 0 0 0 .113 0l7.043-3.019 4.031-1.727zM43.87 18.026a44 44 0 0 0-10.214-1.787l-.843-7.583a.67.67 0 0 1 .17-.524 2.45 2.45 0 0 0 .649-1.666A2.47 2.47 0 0 0 31.159 4h-.013a2.47 2.47 0 0 0-2.473 2.466c0 .643.246 1.227.65 1.666a.66.66 0 0 1 .169.524l-.843 7.583a44 44 0 0 0-10.213 1.787l1.55 3.517.11-.035c3.484-1.017 7.268-1.524 11.054-1.524s7.573.507 11.059 1.524l.112.027z"/></g><defs><clipPath id="a"><path fill="#fff" d="M0 0h64v64H0z"/></clipPath></defs></svg>
